svgs/thin/font-case.svg

<svg xmlns="http://www.w3.org/2000/svg" viewBox="0 0 640 512"><!--! Font Awesome Pro 6.0.0-alpha3 by @fontawesome - https://fontawesome.com License - https://fontawesome.com/license (Commercial License) --><path d="M632 159.6c-4.412 0-7.983 3.598-7.983 8.009v50.56c-20.09-34.83-57.21-58.57-100.1-58.57c-64.02 0-116.1 52.25-116.1 116.5v87.41C407.8 427.8 459.9 480 523.9 480c42.92 0 80.04-23.75 100.1-58.57v50.56C624 476.4 627.6 480 632 480C636.4 480 640 476.4 640 471.1V167.7C640 163.2 636.4 159.6 632 159.6zM624 363.5c0 55.41-44.92 100.5-100.1 100.5c-55.21 0-100.1-45.05-100.1-100.5V276.1c0-55.41 44.92-100.5 100.1-100.5c55.21 0 100.1 45.05 100.1 100.5V363.5zM168.2 36.6L.5485 469.1c-1.606 4.13 .4366 8.76 4.537 10.39C6.037 479.8 7.019 480 7.986 480c3.196 0 6.205-1.94 7.437-5.099l41.48-107h237.4l41.48 107c1.606 4.13 6.252 6.038 10.34 4.568c4.101-1.627 6.143-6.257 4.537-10.39L183.1 36.6C180.7 30.47 170.6 30.47 168.2 36.6zM63.11 351.9l112.5-290.3l112.5 290.3H63.11z"/></svg>

<svg xmlns="http://www.w3.org/2000/svg" viewBox="0 0 640 512"><!-- Font Awesome Pro 6.0.0-alpha2 by @fontawesome - https://fontawesome.com License - https://fontawesome.com/license (Commercial License) --><path d="M632.017 159.642C627.605 159.642 624.034 163.24 624.034 167.651V218.216C603.943 183.388 566.822 159.642 523.906 159.642C459.888 159.642 407.812 211.888 407.812 276.116V363.526C407.812 427.754 459.888 480 523.906 480C566.822 480 603.943 456.255 624.034 421.427V471.991C624.034 476.402 627.605 480 632.017 480C636.43 480 640 476.402 640 471.991V167.651C640 163.24 636.43 159.642 632.017 159.642ZM624.034 363.526C624.034 418.932 579.115 463.982 523.906 463.982C468.697 463.982 423.778 418.932 423.778 363.526V276.116C423.778 220.711 468.697 175.66 523.906 175.66C579.115 175.66 624.034 220.711 624.034 276.116V363.526ZM168.188 36.599L0.548 469.082C-1.057 473.211 0.985 477.841 5.086 479.468C6.037 479.812 7.019 480 7.986 480C11.182 480 14.191 478.06 15.423 474.901L56.908 367.875H294.33L335.811 474.901C337.417 479.03 342.063 480.939 346.148 479.468C350.249 477.841 352.291 473.211 350.685 469.082L183.062 36.599C180.692 30.467 170.557 30.467 168.188 36.599ZM63.115 351.857L175.625 61.596L288.123 351.857H63.115Z"/></svg>
